actions/22/view-readermode.svg

<?xml version="1.0" encoding="UTF-8" standalone="no"?>
<svg
   width="22"
   height="22"
   version="1.1"
   id="svg9"
   sodipodi:docname="view-readermode.svg"
   inkscape:version="1.1.2 (0a00cf5339, 2022-02-04)"
   xmlns:inkscape="http://www.inkscape.org/namespaces/inkscape"
   xmlns:sodipodi="http://sodipodi.sourceforge.net/DTD/sodipodi-0.dtd"
   xmlns="http://www.w3.org/2000/svg"
   xmlns:svg="http://www.w3.org/2000/svg">
  <sodipodi:namedview
     id="namedview11"
     pagecolor="#000000"
     bordercolor="#666666"
     borderopacity="1.0"
     inkscape:pageshadow="2"
     inkscape:pageopacity="0"
     inkscape:pagecheckerboard="0"
     showgrid="false"
     inkscape:zoom="31"
     inkscape:cx="11"
     inkscape:cy="10.967742"
     inkscape:window-width="1811"
     inkscape:window-height="967"
     inkscape:window-x="0"
     inkscape:window-y="29"
     inkscape:window-maximized="1"
     inkscape:current-layer="g7" />
  <defs
     id="defs3">
    <style
       id="current-color-scheme"
       type="text/css">
   .ColorScheme-Text { color:#eeeeec; } .ColorScheme-Highlight { color:#367bf0; } .ColorScheme-NeutralText { color:#ffcc44; } .ColorScheme-PositiveText { color:#3db47e; } .ColorScheme-NegativeText { color:#dd4747; }
  </style>
  </defs>
  <g
     transform="translate(3,3)"
     id="g7">
    <path
       style="fill:currentColor"
       class="ColorScheme-Text"
       d="M 7.5,1.8 C 6,1 5.5,1 4.5,1 c -1,0 -2,0.8 -4,0.8 H 0 V 16 H 15 V 1.8 h -0.5 c -2,0 -3,-0.8 -4,-0.8 -1,0 -1.5,0 -3,0.8 z M 7,2.65 v 8.421811 0 c 0,0 -0.1643193,0.429597 -0.426349,0.312345 C 6.1892736,11.212156 5.5946368,11 5,11 4,11 3,11.6 2,11.6 V 2.65 C 2.5,2.65 4,2 5,2 6,2 7,2.65 7,2.65 Z m 6,0 v 8.95 c -1,0 -2,-0.6 -3,-0.6 -0.5903399,0 -1.1806798,0.209101 -1.5652856,0.380421 -0.266893,0.118886 0,0 0,0 L 8,11.104165 V 2.65 C 8,2.65 9,2 10,2 c 1,0 2,0.65 3,0.65 z"
       id="path5"
       sodipodi:nodetypes="cssccccssccccssccscccsscccsc" />
  </g>
</svg>

<svg xmlns="http://www.w3.org/2000/svg" width="22" height="22" version="1.1">
 <defs>
  <style id="current-color-scheme" type="text/css">
   .ColorScheme-Text { color:#eeeeec; } .ColorScheme-Highlight { color:#367bf0; } .ColorScheme-NeutralText { color:#ffcc44; } .ColorScheme-PositiveText { color:#3db47e; } .ColorScheme-NegativeText { color:#dd4747; }
  </style>
 </defs>
 <g transform="translate(3,3)">
  <path style="fill:currentColor" class="ColorScheme-Text" d="M 7.5,1.8 C 6,1 5.5,1 4.5,1 3.5,1 2.5,1.8 0.5,1.8 H 0 V 16 H 15 V 1.8 H 14.5 C 12.5,1.8 11.5,1 10.5,1 9.5,1 9,1 7.5,1.8 Z M 7,2.65 V 11.6 C 7,11.6 6,11 5,11 4,11 3,11.6 2,11.6 V 2.65 C 2.5,2.65 4,2 5,2 6,2 7,2.65 7,2.65 Z M 13,2.65 V 11.6 C 12,11.6 11,11 10,11 9,11 8,11.6 8,11.6 V 2.65 C 8,2.65 9,2 10,2 11,2 12,2.65 13,2.65 Z"/>
 </g>
</svg>
